X:1
T: Dr. Bob Smith
C: J Stanley Hamilton
B: RSCDS-22
Z: John Chambers <jc:trillian.mit.edu>
M: C|
L: 1/8
%
K: D
A2 | "D"DFAd BdAF | "D"DFAd B2Ad | "A7"cdef gfed | "A7"edcB AGFE |  "D"DFAd BdAF |
| "D"DFAd B2Ad | "A7"cAce gece | "D"d2 f2 d2 |[| fg | "D"a2ab afdf | "(Bm)"abaf dfed |
| "A7"cAce afed | "A7"c2A2 A2fg |  "D"a2ab afdf | "(Bm)"abaf dfed | "A7"cAce aece | "D"d2 f2 d2 |]
